svg/device/dashboard_3_line.svg

<?xml version="1.0" encoding="UTF-8"?>
<svg width="24px" height="24px" viewBox="0 0 24 24" version="1.1" xmlns="http://www.w3.org/2000/svg" xmlns:xlink="http://www.w3.org/1999/xlink">
    <title>dashboard_3_line</title>
    <g id="Icon" stroke="none" stroke-width="1" fill="none" fill-rule="evenodd">
        <g id="Device" transform="translate(-624.000000, -192.000000)">
            <g id="dashboard_3_line" transform="translate(624.000000, 192.000000)">
                <path d="M24,0 L24,24 L0,24 L0,0 L24,0 Z M12.5935,23.2578 L12.5819,23.2595 L12.5109,23.295 L12.4919,23.2987 L12.4767,23.295 L12.4057,23.2595 C12.3958,23.2564 12.387,23.259 12.3821,23.2649 L12.378,23.2758 L12.3609,23.7031 L12.3659,23.7235 L12.3769,23.7357 L12.4805,23.8097 L12.4953,23.8136 L12.5071,23.8097 L12.6107,23.7357 L12.6233,23.7197 L12.6267,23.7031 L12.6096,23.2758 C12.6076,23.2657 12.601,23.2593 12.5935,23.2578 Z M12.8584,23.1453 L12.8445,23.1473 L12.6598,23.2397 L12.6499,23.2499 L12.6472,23.2611 L12.6651,23.6906 L12.6699,23.7034 L12.6784,23.7105 L12.8793,23.8032 C12.8914,23.8069 12.9022,23.803 12.9078,23.7952 L12.9118,23.7812 L12.8777,23.1665 C12.8753,23.1546 12.8674,23.147 12.8584,23.1453 Z M12.143,23.1473 C12.1332,23.1424 12.1222,23.1453 12.1156,23.1526 L12.1099,23.1665 L12.0758,23.7812 C12.0751,23.7927 12.0828,23.8019 12.0926,23.8046 L12.1083,23.8032 L12.3092,23.7105 L12.3186,23.7024 L12.3225,23.6906 L12.3404,23.2611 L12.3372,23.2485 L12.3278,23.2397 L12.143,23.1473 Z" id="MingCute" fill-rule="nonzero"></path>
                <path d="M12,2 C14.6441375,2 17.04848,3.0262049 18.8366815,4.7020485 L19.0711,4.92891 C20.8826,6.74284 22,9.24093 22,12 C22,17.5228 17.5228,22 12,22 C6.47715,22 2,17.5228 2,12 C2,6.47715 6.47715,2 12,2 Z M13,4.06189 L13,5 C13,5.55228 12.5523,6 12,6 C11.4477,6 11,5.55228 11,5 L11,4.06189 C9.53929,4.24404 8.20087,4.81999 7.09435,5.68015 L7.75735,6.34315 C8.14788,6.73368 8.14788,7.36684 7.75735,7.75737 C7.36683,8.14789 6.73366,8.14789 6.34314,7.75737 L5.68014,7.09436 C4.81999,8.20089 4.24404,9.5393 4.06189,11 L5,11 C5.55228,11 6,11.4477 6,12 C6,12.5523 5.55228,13 5,13 L4.06189,13 C4.55399,16.9463 7.92038,20 12,20 C16.0796,20 19.446,16.9463 19.9381,13 L19,13 C18.4477,13 18,12.5523 18,12 C18,11.4477 18.4477,11 19,11 L19.9381,11 C19.756,9.53929 19.18,8.20088 18.3199,7.09436 L14.7076,10.7066 C14.895,11.0982 15,11.5369 15,12 C15,13.6569 13.6569,15 12,15 C10.3431,15 9,13.6569 9,12 C9,10.3431 10.3431,9 12,9 C12.4631,9 12.9018,9.10495 13.2934,9.29237 L16.9056,5.68014 C15.7991,4.81999 14.4607,4.24404 13,4.06189 Z M12,11 C11.4477,11 11,11.4477 11,12 C11,12.5523 11.4477,13 12,13 C12.5523,13 13,12.5523 13,12 C13,11.4477 12.5523,11 12,11 Z" id="形状" fill="#09244B"></path>
            </g>
        </g>
    </g>
</svg>

<svg xmlns="http://www.w3.org/2000/svg" width="24" height="24"><g fill="none" fill-rule="evenodd"><path d="M24 0v24H0V0h24ZM12.594 23.258l-.012.002-.071.035-.02.004-.014-.004-.071-.036c-.01-.003-.019 0-.024.006l-.004.01-.017.428.005.02.01.013.104.074.015.004.012-.004.104-.074.012-.016.004-.017-.017-.427c-.002-.01-.009-.017-.016-.018Zm.264-.113-.014.002-.184.093-.01.01-.003.011.018.43.005.012.008.008.201.092c.012.004.023 0 .029-.008l.004-.014-.034-.614c-.003-.012-.01-.02-.02-.022Zm-.715.002a.023.023 0 0 0-.027.006l-.006.014-.034.614c0 .012.007.02.017.024l.015-.002.201-.093.01-.008.003-.011.018-.43-.003-.012-.01-.01-.184-.092Z"/><path fill="#09244B" d="M12 2a9.965 9.965 0 0 1 6.837 2.702l.234.227A9.973 9.973 0 0 1 22 12c0 5.523-4.477 10-10 10S2 17.523 2 12 6.477 2 12 2Zm1 2.062V5a1 1 0 1 1-2 0v-.938A7.96 7.96 0 0 0 7.094 5.68l.663.663a1 1 0 1 1-1.414 1.414l-.663-.663A7.96 7.96 0 0 0 4.062 11H5a1 1 0 1 1 0 2h-.938a8.001 8.001 0 0 0 15.876 0H19a1 1 0 1 1 0-2h.938a7.96 7.96 0 0 0-1.618-3.906l-3.612 3.613a3 3 0 1 1-1.414-1.414l3.612-3.613A7.96 7.96 0 0 0 13 4.062ZM12 11a1 1 0 1 0 0 2 1 1 0 0 0 0-2Z"/></g></svg>
